resources/assets/components/pages/AccountPage/Badges/Posts2Locked.svg

<?xml version="1.0" encoding="UTF-8"?>
<svg width="108px" height="108px" viewBox="0 0 108 108" version="1.1" xmlns="http://www.w3.org/2000/svg" xmlns:xlink="http://www.w3.org/1999/xlink">
    <!-- Generator: Sketch 55.1 (78136) - https://sketchapp.com -->
    <title>Badge / Inactive / Action x 2</title>
    <desc>Created with Sketch.</desc>
    <g id="Badge-/-Inactive-/-Action-x-2" stroke="none" stroke-width="1" fill="none" fill-rule="evenodd">
        <g id="Campaign-Completion-2" fill-rule="nonzero">
            <g id="Layer_1">
                <ellipse id="Oval" fill="#E7E7E7" cx="53.7511521" cy="53.667048" rx="53.7511521" ry="53.6094675"></ellipse>
                <path d="M53.7511521,29.7006377 C53.8334375,29.6941139 53.8968778,29.6256114 53.8968778,29.543284 C53.8968778,29.4609566 53.8334375,29.3924542 53.7511521,29.3859303 C53.6688666,29.3924542 53.6054263,29.4609566 53.6054263,29.543284 C53.6054263,29.6256114 53.6688666,29.6941139 53.7511521,29.7006377 Z" id="Path" fill="#983AC9"></path>
                <g id="Group" transform="translate(34.042396, 44.873110)" fill="#FFFFFF">
                    <polygon id="Path" points="14.1554654 47.7709993 8.42599078 41.1393097 0.00696774194 44.0640039 11.1752627 0.0625443787 25.322765 3.77053254"></polygon>
                </g>
                <g id="Group" transform="translate(48.077419, 44.873110)" fill="#FFFFFF">
                    <polygon id="Path" points="11.227023 47.7709993 16.9564977 41.1393097 25.3755207 44.0640039 14.2072258 0.0625443787 0.0597235023 3.77053254"></polygon>
                </g>
                <path d="M76.969659,37.1434188 C76.969659,38.2215648 75.2018433,39.1627087 75.05353,40.1991584 C74.901235,41.2624129 76.3316129,42.6602301 76.0349862,43.6688823 C75.7363687,44.6963971 73.77047,45.1014464 73.3305069,46.0604602 C72.8905438,47.019474 73.8600553,48.7756805 73.2857143,49.6652005 C72.7113733,50.5547206 70.7106359,50.3968705 70.0148571,51.1980342 C69.3190783,51.9991979 69.7610323,53.9489941 68.9567558,54.6449244 C68.1524793,55.3408547 66.2831336,54.625069 65.3852903,55.2008744 C64.487447,55.7766798 64.3719816,57.769165 63.3945069,58.2129323 C62.4170323,58.6566995 60.8413272,57.4405588 59.8110968,57.7413675 C58.7987834,58.0391979 58.1189309,59.916522 57.0498802,60.0684155 C56.0096959,60.2163379 54.8271705,58.6050756 53.7461751,58.6050756 C52.6651797,58.6050756 51.481659,60.2163379 50.44247,60.0684155 C49.3764055,59.916522 48.6935668,58.0372124 47.6812535,57.7413675 C46.6520184,57.4435371 45.0603871,58.6517357 44.0978433,58.2129323 C43.1352995,57.7741289 43.0029124,55.7737015 42.1120369,55.2008744 C41.2211613,54.6280473 39.3438525,55.3398619 38.5405714,54.6449244 C37.7372903,53.9499869 38.1802396,52.0001907 37.48247,51.1980342 C36.7847005,50.3958777 34.7889401,50.5596844 34.2116129,49.6652005 C33.6342857,48.7707166 34.6097696,47.0303945 34.1668203,46.0604602 C33.723871,45.090526 31.7639447,44.6963971 31.462341,43.6688823 C31.1637235,42.6602301 32.5960922,41.2624129 32.4437972,40.1991584 C32.2954839,39.1627087 30.5276682,38.2215648 30.5276682,37.1434188 C30.5276682,36.0652728 32.3004608,35.1251216 32.4497696,34.0876792 C32.6020645,33.0244247 31.1716866,31.6276003 31.4683134,30.6179553 C31.7669309,29.5914333 33.7328295,29.186384 34.1727926,28.2263774 C34.6127558,27.2663708 33.6442396,25.5141354 34.2165899,24.6206443 C34.7889401,23.7271532 36.7916682,23.8889744 37.487447,23.0878107 C38.1832258,22.2866469 37.7412719,20.3368508 38.5455484,19.6409204 C39.3498249,18.9449901 41.2191705,19.6607758 42.1170138,19.0849704 C43.0148571,18.509165 43.1303226,16.5166798 44.1077972,16.0729126 C45.0852719,15.6291453 46.660977,16.845286 47.6912074,16.5444773 C48.7035207,16.2466469 49.3833733,14.3693228 50.452424,14.2174293 C51.4876313,14.0704997 52.6701567,15.6857331 53.7511521,15.6857331 C54.8321475,15.6857331 56.0156682,14.0744707 57.0548571,14.2223932 C58.1209217,14.3742867 58.8037604,16.2535963 59.8160737,16.5494412 C60.8453088,16.8472715 62.4369401,15.639073 63.3994839,16.0778764 C64.3620276,16.5166798 64.4944147,18.5171072 65.3902673,19.0899343 C66.2861198,19.6627613 68.1584516,18.9509467 68.9617327,19.6458843 C69.7650138,20.3408218 69.3220645,22.290618 70.0198341,23.0927745 C70.7176037,23.894931 72.7083871,23.7271532 73.2857143,24.6206443 C73.8630415,25.5141354 72.8875576,27.2554504 73.3305069,28.2253846 C73.7734562,29.1953189 75.7333825,29.5904405 76.0349862,30.6169625 C76.3336037,31.6266075 74.901235,33.023432 75.05353,34.0866864 C75.2018433,35.1251216 76.969659,36.0652728 76.969659,37.1434188 Z" id="Path" fill="#F3F3F3"></path>
                <ellipse id="Oval" fill="#FFFFFF" cx="53.7511521" cy="37.1434188" rx="19.0428387" ry="18.992643"></ellipse>
            </g>
            <g id="Layer_2" fill="#DDDDDD">
                <path d="M53.7511521,5.6586745 C76.6176795,5.67583373 96.3102812,21.7490795 100.850166,44.1013371 C105.39005,66.4535946 93.5217061,88.903318 72.4645161,97.7945891 C47.9972532,108.102452 19.7843596,96.6762726 9.44925412,72.273504 C-0.885851361,47.8707354 10.5705254,19.732209 35.037788,9.42434583 C40.9580295,6.92622845 47.3228784,5.64547125 53.7511521,5.6586745 L53.7511521,5.6586745 Z M53.7511521,0 C24.0655853,0 0,24.0021499 0,53.6094675 C0,83.216785 24.0655853,107.218935 53.7511521,107.218935 C83.4367189,107.218935 107.502304,83.216785 107.502304,53.6094675 C107.502304,24.0021499 83.4367189,0 53.7511521,0 Z" id="Shape"></path>
            </g>
        </g>
    </g>
</svg>

<svg id="Layer_1" data-name="Layer 1" xmlns="http://www.w3.org/2000/svg" viewBox="0 0 108 108"><defs><style>.cls-1{fill:#e7e7e7;}.cls-2{fill:#983ac9;}.cls-3{fill:#fff;}.cls-4{fill:#f3f3f3;}.cls-5{fill:#ddd;}</style></defs><title>Campaign Completion 2 Locked</title><g id="Campaign-Completion-2"><ellipse id="Oval" class="cls-1" cx="53.75" cy="53.67" rx="53.75" ry="53.61"/><path id="Path" class="cls-2" d="M53.75,29.7a.16.16,0,0,0,.15-.16.15.15,0,0,0-.15-.15.15.15,0,0,0-.14.15A.15.15,0,0,0,53.75,29.7Z"/><g id="Group"><polygon class="cls-3" points="48.2 92.64 42.47 86.01 34.05 88.94 45.22 44.94 59.37 48.64 48.2 92.64"/></g><polygon class="cls-3" points="59.3 92.64 65.03 86.01 73.45 88.94 62.28 44.94 48.14 48.64 59.3 92.64"/><path class="cls-4" d="M77,37.14c0,1.08-1.77,2-1.92,3.06s1.28,2.46,1,3.47-2.26,1.43-2.7,2.39.53,2.72,0,3.61S70.71,50.4,70,51.2,69.76,54,69,54.64s-2.68,0-3.57.56-1,2.57-2,3-2.55-.77-3.58-.47-1.69,2.18-2.76,2.33-2.22-1.46-3.3-1.46-2.27,1.61-3.31,1.46-1.75-2-2.76-2.33-2.62.91-3.58.47-1.1-2.44-2-3-2.77.14-3.57-.56S38.18,52,37.48,51.2s-2.69-.64-3.27-1.53.4-2.64,0-3.61-2.41-1.36-2.71-2.39,1.14-2.41,1-3.47-1.91-2-1.91-3.06,1.77-2,1.92-3-1.28-2.46-1-3.47,2.26-1.43,2.7-2.39-.53-2.72,0-3.61,2.57-.73,3.27-1.53.25-2.75,1.06-3.45,2.67,0,3.57-.56,1-2.56,2-3,2.55.78,3.58.47,1.69-2.17,2.76-2.32,2.22,1.47,3.3,1.47,2.27-1.62,3.3-1.47,1.75,2,2.77,2.33,2.62-.91,3.58-.47,1.09,2.44,2,3,2.77-.14,3.57.56.36,2.64,1.06,3.44,2.69.64,3.27,1.53-.4,2.64,0,3.61,2.4,1.36,2.7,2.39-1.13,2.4-1,3.47S77,36.07,77,37.14Z"/><ellipse class="cls-3" cx="53.75" cy="37.14" rx="19.04" ry="18.99"/><path id="Shape" class="cls-5" d="M53.75,5.66A48,48,0,1,1,35,9.42,48.06,48.06,0,0,1,53.75,5.66Zm0-5.66A53.61,53.61,0,1,0,107.5,53.61,53.68,53.68,0,0,0,53.75,0Z"/></g></svg>
